X: 151
T: Missa De beata virgine / Kyrie
N: Derived from Rue1035a-Missa_De_beata_virgine-Kyrie.krn
C: Pierre de la Rue
%%abc-version 2.0
%%abcx-abcm2ps-target-version 5.9.1 (29 Sep 2008)
%%abc-creator hum2abc beta
%%abcx-conversion-date 2019/02/17 08:01:16
%%abc-edited-by Jesse Rodin
%%abc-edited-by Jesse Rodin 06-05-2012
%%abcx-initial-encoding-date 2012/06/05/
%%humdrum-veritas 195915494
%%humdrum-veritas-data 1849466443
%%linebreak <none>
%%barnumbers 0
L: 1/4
M: 2/1
Q: 1/2=120
%%staves [1 2 3 4]
V: 1 clef=treble
V: 2 clef=treble-8
V: 3 clef=treble-8
V: 4 clef=bass
K: F
[V:1] G4B4 | 
[V:2] z8 | 
[V:3] z8 | 
[V:4] z8 | 
[V:1] c4d4 | 
[V:2] z8 | 
[V:3] z8 | 
[V:4] z8 | 
[V:1] c2B2A4 | 
[V:2] z8 | 
[V:3] z8 | 
[V:4] z8 | 
[V:1] G2B4A2 | 
[V:2] z8 | 
[V:3] G4B4 | 
[V:4] z8 | 
[V:1] G4F4 | 
[V:2] z8 | 
[V:3] c4d4 | 
[V:4] z8 | 
[V:1] z2G4F2 | 
[V:2] z8 | 
[V:3] c2B2A4 | 
[V:4] z8 | 
[V:1] G2d4c2 | 
[V:2] d4f4 | 
[V:3] G2B4A2 | 
[V:4] z8 | 
[V:1] B4A2f2 | 
[V:2] g4a4 | 
[V:3] G4F4 | 
[V:4] z8 | 
[V:1] edd4c2 | 
[V:2] g2f2e4 | 
[V:3] c2d2A4 | 
[V:4] z8 | 
[V:1] f3edcc2- | 
[V:2] d2f4e2 | 
[V:3] z4A4 | 
[V:4] D,4F,4 | 
[V:1] c2B2c4 | 
[V:2] d4c4 | 
[V:3] B4A2c2 | 
[V:4] G,4A,4 | 
[V:1] d4e4 | 
[V:2] z2d4c2 | 
[V:3] B2A4G2 | 
[V:4] G,2F,2E,4 | 
[V:1] f6e2 | 
[V:2] d2e2f4- | 
[V:3] B2A2d4 | 
[V:4] D,8 | 
[V:1] d4c4 | 
[V:2] f2ede2f2 | 
[V:3] B4c4 | 
[V:4] z4A,4 | 
[V:1] B2G2d4- | 
[V:2] g6f2 | 
[V:3] d4z2d2 | 
[V:4] G,4B,4- | 
[V:1] d2c2A2B2 | 
[V:2] d2e2f2d2 | 
[V:3] B2c2d4 | 
[V:4] B,2A,2F,2G,2- | 
[V:1] G2B2A2B2- | 
[V:2] e2f3ed2- | 
[V:3] z2d3cBA | 
[V:4] G,2D,2F,2G,2 | 
[V:1] BAG3^FFE | 
[V:2] d^c^c=Bd4 | 
[V:3] G4A4 | 
[V:4] E,4D,4 | 
[V:1] G4d4- | 
[V:2] z2g4f2 | 
[V:3] G4z2d2 | 
[V:4] G,4B,4- | 
[V:1] d2c2A2B2 | 
[V:2] d2e2f2d2 | 
[V:3] B2c2d4 | 
[V:4] B,2A,2F,2G,2- | 
[V:1] G2B2A2B2- | 
[V:2] e2f3ed2- | 
[V:3] z2d3cBA | 
[V:4] G,2D,2F,2G,2 | 
[V:1] BAG3^FFE | 
[V:2] d^c^c=Bd4- | 
[V:3] G4A4 | 
[V:4] E,4D,4 | 
[V:1] G8- | 
[V:2] d8- | 
[V:3] G8- | 
[V:4] z4G,4 | 
[V:1] G8 ||  
[V:2] d8 ||  
[V:3] G8 ||  
[V:4] G,8 ||  
[V:1]  [K:F] [M:2/1]z8 | 
[V:2]  [K:F] [M:2/1]z8 | 
[V:3]  [K:F] [M:2/1]z4A4- | 
[V:4]  [K:F] [M:2/1]D,8 | 
[V:1] z8 | 
[V:2] z8 | 
[V:3] A4A4 | 
[V:4] D,4C,4 | 
[V:1] z8 | 
[V:2] z8 | 
[V:3] G4B4- | 
[V:4] _E,6D,2 | 
[V:1] z8 | 
[V:2] z8 | 
[V:3] B2A2A4- | 
[V:4] D,8 | 
[V:1] z8 | 
[V:2] z8 | 
[V:3] A4A4 | 
[V:4] D,4C,4 | 
[V:1] z8 | 
[V:2] z8 | 
[V:3] G4B4- | 
[V:4] _E,6D,2 | 
[V:1] z8 | 
[V:2] z8 | 
[V:3] B2A2A4 | 
[V:4] D,4C,4 | 
[V:1] z8 | 
[V:2] z8 | 
[V:3] G4B4 | 
[V:4] _E,4D,3C, | 
[V:1] z8 | 
[V:2] z8 | 
[V:3] A4G4- | 
[V:4] D,2C,4B,,2 | 
[V:1] z8 | 
[V:2] z8 | 
[V:3] G4F4 | 
[V:4] C,4D,4 | 
[V:1] z8 | 
[V:2] z8 | 
[V:3] G4A4 | 
[V:4] _E,4D,4- | 
[V:1] z8 | 
[V:2] z8 | 
[V:3] B8 | 
[V:4] D,4B,,4 | 
[V:1] z8 | 
[V:2] z8 | 
[V:3] A4F4 | 
[V:4] C,4D,4 | 
[V:1] z8 | 
[V:2] z8 | 
[V:3] G6A2 | 
[V:4] _E,6D,2 | 
[V:1] z8 | 
[V:2] z8 | 
[V:3] B4A4 | 
[V:4] D,8- | 
[V:1] z4A4- | 
[V:2] d8 | 
[V:3] A8 | 
[V:4] D,8 | 
[V:1] A4A4 | 
[V:2] d4c4 | 
[V:3] z8 | 
[V:4] z8 | 
[V:1] G4B4- | 
[V:2] _e6d2 | 
[V:3] z8 | 
[V:4] z8 | 
[V:1] B2A2A4- | 
[V:2] d8 | 
[V:3] z8 | 
[V:4] z8 | 
[V:1] A4A4 | 
[V:2] d4c4 | 
[V:3] z8 | 
[V:4] z8 | 
[V:1] G4B4- | 
[V:2] _e6d2 | 
[V:3] z8 | 
[V:4] z8 | 
[V:1] B2A2A4 | 
[V:2] d4c4 | 
[V:3] z8 | 
[V:4] z8 | 
[V:1] G4B4 | 
[V:2] _e4d3c | 
[V:3] z8 | 
[V:4] z8 | 
[V:1] A4G4- | 
[V:2] d2c4B2 | 
[V:3] z8 | 
[V:4] z8 | 
[V:1] G4F4 | 
[V:2] c4d4 | 
[V:3] z8 | 
[V:4] z8 | 
[V:1] G4A4 | 
[V:2] _e4d4- | 
[V:3] z8 | 
[V:4] z8 | 
[V:1] B8 | 
[V:2] d4B4 | 
[V:3] z8 | 
[V:4] z8 | 
[V:1] A4F4 | 
[V:2] c4d4 | 
[V:3] z8 | 
[V:4] z8 | 
[V:1] G4A4 | 
[V:2] _e6d2 | 
[V:3] z8 | 
[V:4] z8 | 
[V:1] B8 | 
[V:2] d4B4 | 
[V:3] G8 | 
[V:4] z8 | 
[V:1] A8 | 
[V:2] c4d4 | 
[V:3] A4F4 | 
[V:4] z8 | 
[V:1] z8 | 
[V:2] _e8 | 
[V:3] G4A4 | 
[V:4] z8 | 
[V:1] z8 | 
[V:2] z4d4 | 
[V:3] B8 | 
[V:4] B,,8 | 
[V:1] z4A4 | 
[V:2] _e4d4- | 
[V:3] A4F4 | 
[V:4] C,4D,4 | 
[V:1] G2E2G4 | 
[V:2] d2cBc4 | 
[V:3] G6A2 | 
[V:4] _E,8 | 
[V:1] F8- | 
[V:2] d8- | 
[V:3] B4A4 | 
[V:4] D,8- | 
[V:1] F8 ||  
[V:2] d8 ||  
[V:3] A8 ||  
[V:4] D,8 ||  
[V:1]  [K:F] [M:2/1]z8 | 
[V:2]  [K:F] [M:2/1]d8 | 
[V:3]  [K:F] [M:2/1]z8 | 
[V:4]  [K:F] [M:2/1]G,4B,4 | 
[V:1] z8 | 
[V:2] f4g4 | 
[V:3] z8 | 
[V:4] A,4G,2B,2- | 
[V:1] z8 | 
[V:2] g4f4 | 
[V:3] z8 | 
[V:4] B,2A,G,A,4 | 
[V:1] d8 | 
[V:2] g4d4 | 
[V:3] g4b4 | 
[V:4] G,8 | 
[V:1] f4g4 | 
[V:2] z8 | 
[V:3] a4g2b2- | 
[V:4] z8 | 
[V:1] g4f4 | 
[V:2] z4d4 | 
[V:3] b2aga4 | 
[V:4] z8 | 
[V:1] g4d4 | 
[V:2] e2g4f2- | 
[V:3] g6d2 | 
[V:4] z2G,3A,B,2 | 
[V:1] z8 | 
[V:2] f2edc4 | 
[V:3] f2g2e4 | 
[V:4] F,2B,4A,2 | 
[V:1] z8 | 
[V:2] B3cdef2 | 
[V:3] d6c2 | 
[V:4] B,2G,2B,2A,2 | 
[V:1] z8 | 
[V:2] edd4^c2 | 
[V:3] B2A4G2 | 
[V:4] G,2F,2E,4 | 
[V:1] z4d4 | 
[V:2] d8 | 
[V:3] A2f4ed | 
[V:4] D,8 | 
[V:1] e2g4f2- | 
[V:2] z8 | 
[V:3] c4B3c | 
[V:4] z8 | 
[V:1] f2edc4 | 
[V:2] z8 | 
[V:3] def3ga2 | 
[V:4] z8 | 
[V:1] B3cdef2 | 
[V:2] z8 | 
[V:3] b2g2b2a2 | 
[V:4] z8 | 
[V:1] e2d4^c2 | 
[V:2] z8 | 
[V:3] g2f2e4 | 
[V:4] z8 | 
[V:1] d8 | 
[V:2] z2d2d2f2- | 
[V:3] d8 | 
[V:4] D,8 | 
[V:1] z8 | 
[V:2] fedc_e2d2- | 
[V:3] z8 | 
[V:4] F,4G,4 | 
[V:1] z8 | 
[V:2] d2cBA4 | 
[V:3] z8 | 
[V:4] G,4F,4 | 
[V:1] z2d2d2f2- | 
[V:2] G4z4 | 
[V:3] d8 | 
[V:4] G,4D,4 | 
[V:1] fedc_e2d2- | 
[V:2] z8 | 
[V:3] f4g4 | 
[V:4] z8 | 
[V:1] d2cBA4 | 
[V:2] z8 | 
[V:3] g4f4 | 
[V:4] z8 | 
[V:1] z8 | 
[V:2] z8 | 
[V:3] g4d4 | 
[V:4] z2G,2B,3A, | 
[V:1] z8 | 
[V:2] z4g4 | 
[V:3] z2d4c2 | 
[V:4] G,2F,2E,4 | 
[V:1] z8 | 
[V:2] b3ag2f2 | 
[V:3] d2_e4d2 | 
[V:4] z8 | 
[V:1] z2G2B3A | 
[V:2] e4d4 | 
[V:3] c4B4 | 
[V:4] z8 | 
[V:1] G2F2E4 | 
[V:2] z8 | 
[V:3] c2d4^c2 | 
[V:4] z8 | 
[V:1] D4z2A2 | 
[V:2] z4a4 | 
[V:3] d8 | 
[V:4] z8 | 
[V:1] Bcdef2e2- | 
[V:2] g4f2g2- | 
[V:3] z8 | 
[V:4] z8 | 
[V:1] edd4^c2 | 
[V:2] gfede4 | 
[V:3] z8 | 
[V:4] z4A,4 | 
[V:1] d8 | 
[V:2] d8 | 
[V:3] z4d4 | 
[V:4] B,3A,F,2G,2 | 
[V:1] z8 | 
[V:2] z8 | 
[V:3] c4B2c2- | 
[V:4] C,D,E,F,G,2A,2- | 
[V:1] z8 | 
[V:2] z4a4 | 
[V:3] cBAGA4 | 
[V:4] A,2G,4^F,2 | 
[V:1] z4z2B2- | 
[V:2] b3agfg2- | 
[V:3] G8 | 
[V:4] G,8 | 
[V:1] B2A2G4 | 
[V:2] gff4e2 | 
[V:3] z8 | 
[V:4] z4z2C,2 | 
[V:1] F4z4 | 
[V:2] f4z4 | 
[V:3] z2B4A2 | 
[V:4] D,2B,,C,D,E,F,2- | 
[V:1] z2G2A2FG | 
[V:2] z4z2f2- | 
[V:3] G4F4 | 
[V:4] F,2E,2F,4 | 
[V:1] ABc4=B2 | 
[V:2] f2e2d4 | 
[V:3] z8 | 
[V:4] z8 | 
[V:1] c4z4 | 
[V:2] c4z4 | 
[V:3] z2c4B2 | 
[V:4] z2C,D,E,F,G,2- | 
[V:1] z2A2B2GA | 
[V:2] z4z2g2- | 
[V:3] A4G4 | 
[V:4] G,2^F,2G,4 | 
[V:1] Bcd4c2 | 
[V:2] g2f2e4 | 
[V:3] z8 | 
[V:4] z4A,4 | 
[V:1] d3cB2A2 | 
[V:2] d4G2A2 | 
[V:3] G6F2 | 
[V:4] B,2G,2D3C | 
[V:1] d2c2B2A2- | 
[V:2] B2c2d2A2 | 
[V:3] G2A2B2c2- | 
[V:4] B,2A,2G,2F,2 | 
[V:1] AGG4F2 | 
[V:2] c4d4 | 
[V:3] cBAGA4 | 
[V:4] E,4D,4 | 
[V:1] d3cB2A2 | 
[V:2] B3GG2A2 | 
[V:3] G6F2 | 
[V:4] z2D2D3C | 
[V:1] d2c2B2A2- | 
[V:2] B2c2d2A2 | 
[V:3] G2A2B2c2- | 
[V:4] B,2A,2G,2F,2 | 
[V:1] AGG4^F2 | 
[V:2] c4d4 | 
[V:3] cBAGA4 | 
[V:4] E,4D,4 | 
[V:1] G8 |]  
[V:2] d8 |]  
[V:3] G8 |]  
[V:4] G,8 |]  



